TH1/E4.svg

<svg xmlns="http://www.w3.org/2000/svg" viewBox="0 0 1200 800" preserveAspectRatio="none" width="1200" height="800">
 <title>
  ROOT canvas
 </title>
 <rect x="0" y="0" width="1200" height="800" style="fill: none;"></rect>
 <g>
  <g transform="translate(120,80)">
   <title></title>
   <rect x="0" y="0" width="960" height="640" style="fill: white; stroke: black; stroke-width: 1;"></rect>
   <svg x="0" y="0" overflow="hidden" width="960" height="640" viewBox="0 0 960 640">
    <g>
     <path d="M5,640c1.5,0,5.83,0,9,0s6.67,-2,10,-2s6.83,2,10,2s5.83,0,9,0s6.83,0,10,0s5.83,0,9,0s6.79,-2.36,10,-3s6.83,-1,10,-1s5.83,0,9,0s6.84,-2.88,10,-3s5.89,2.43,9,2s7.03,-3.96,10,-5s6.89,-1.58,10,-2s6.1,-0.12,9,-1s6.95,-5.41,10,-6s6.05,1.8,9,1s7.66,-6.48,10,-8s8.28,-3.42,10,-5s6.3,-10.88,9,-12s7.64,6.38,10,5s6.43,-13.76,9,-15s7.44,8.41,10,7s9.42,-16.78,10,-18s6.09,-21.14,9,-22s6.84,-0.92,10,-1s7.42,-1.42,9,-3s9.11,-34.52,10,-36s7.91,-4.5,10,-6s7.99,-9.52,9,-11s9.76,-16.16,10,-17s7.07,-45.45,9,-47s7.14,-1.84,10,-3s9.32,-23.7,10,-25s8.55,-10.9,9,-12s9.59,-34.93,10,-36s8.74,-13.13,9,-14s9.83,-50.26,10,-51s6.98,-33.33,10,-34s6.02,-0.26,9,-1s9.74,-37.13,10,-38s8.87,-25.38,9,-26s9.25,-67.61,10,-69s8.87,33.52,10,32s6.96,-51.48,9,-53s7.85,45.48,10,44s8.83,-51.29,9,-52s7.33,-25.67,10,-27s9.45,15.8,10,17s6.3,25.12,9,24s9.83,-34.29,10,-35s7.58,-45.58,9,-44s8.12,69.35,10,71s6.95,2.41,10,3s6.01,11.27,9,12s8.19,1.43,10,3s8.77,48.18,9,49s8.93,15.44,10,17s9.33,10.71,10,12s8.41,22.76,9,24s8.83,13.47,10,15s8.52,8.86,9,10s9.8,35.21,10,36s9.66,42.02,10,43s8.24,11.64,9,13s9.85,20.33,10,21s8.18,60.61,9,62s7.59,-7.49,10,-6s9.64,27.99,10,29s8.41,22.76,9,24s9.35,13.72,10,15s8.42,20.78,9,22s9.36,16.69,10,18s7.01,22.28,10,23s5.99,-1.69,9,-1s8.96,20.51,10,22s7.61,4.43,9,6s7.73,14.45,10,16s7.64,1.62,10,3s7.52,10.42,9,12s6.86,8.31,10,8s5.9,-9.46,9,-9s8.16,11.34,10,13s7.52,3.69,10,5s5.83,5,9,5s6.83,0,10,0s5.83,3,9,3s6.67,0,10,0s6.93,7.45,10,8s5.91,-3.5,9,-4s7.02,0.25,10,1s5.83,4,9,4s6.67,0,10,0s6.83,0,10,0s5.83,2,9,2s6.83,0,10,0s5.83,0,9,0s6.67,0,10,0s6.83,0,10,0s7.52,-0.84,9,-1L955,640c-1.5,0,-5.83,0,-9,0s-6.67,0,-10,0s-6.83,0,-10,0s-5.83,0,-9,0s-6.83,0,-10,0s-5.83,0,-9,0s-6.67,0,-10,0s-6.83,0,-10,0s-5.97,-1.36,-9,-2s-6.85,-2.21,-10,-2s-5.86,3.26,-9,3s-6.67,-5,-10,-5s-6.83,0,-10,0s-5.83,-3,-9,-3s-6.83,0,-10,0s-6.3,-1.88,-9,-3s-7.87,-3.4,-10,-5s-6.87,-9.65,-10,-10s-5.84,6.88,-9,7s-8.35,-5.42,-10,-7s-6.27,-9.91,-9,-11s-7.22,-0.76,-10,-2s-8.47,-12.42,-10,-14s-7.86,-4.48,-9,-6s-7.38,-18.8,-10,-20s-6.43,3.24,-9,2s-9.28,-19.63,-10,-21s-9.38,-15.74,-10,-17s-8.29,-19.68,-9,-21s-9.36,-12.72,-10,-14s-8.6,-21.95,-9,-23s-7.55,-25.53,-10,-27s-9.18,7.38,-10,6s-8.84,-58.3,-9,-59s-9.16,-18.6,-10,-20s-8.63,-10.99,-9,-12s-9.78,-41.18,-10,-42s-9.46,-32.81,-10,-34s-7.76,-7.46,-9,-9s-9.38,-13.74,-10,-15s-8.3,-21.69,-9,-23s-8.87,-10.42,-10,-12s-9.75,-15.15,-10,-16s-7.19,-45.43,-9,-47s-7,-2.28,-10,-3s-5.94,-10.42,-9,-11s-8.12,-1.35,-10,-3s-8.6,-66.43,-10,-68s-8.81,40.25,-9,41s-7.31,32.87,-10,34s-8.4,-21.76,-9,-23s-7.33,-17.33,-10,-16s-9.82,25.27,-10,26s-6.73,48.57,-9,50s-7.84,-44.48,-10,-43s-7.86,49.48,-9,51s-9.21,-31.42,-10,-30s-9.86,65.35,-10,66s-8.72,24.11,-9,25s-7.02,36.25,-10,37s-5.98,0.34,-9,1s-9.8,31.22,-10,32s-9.71,47.09,-10,48s-8.56,12.9,-9,14s-9.52,32.86,-10,34s-8.29,10.68,-9,12s-6.89,23.17,-10,24s-7.54,0.68,-10,2s-8.73,44.11,-9,45s-8.83,13.47,-10,15s-6.62,8.63,-9,10s-8.86,3.42,-10,5s-8.41,32.42,-10,34s-5.84,2.9,-9,3s-7.09,0.13,-10,1s-8.29,17.68,-9,19s-7.44,14.59,-10,16s-7.41,-6.22,-10,-5s-6.41,11.78,-9,13s-7.2,-6.01,-10,-5s-6.98,9.48,-9,11s-7.32,1.68,-10,3s-6.83,7,-10,7s-5.83,0,-9,0s-7.03,3.24,-10,4s-5.91,0.52,-9,1s-6.86,1.22,-10,2s-6.86,2.7,-10,3s-5.84,-1.14,-9,-1s-6.83,2,-10,2s-5.83,0,-9,0s-6.67,0,-10,0s-6.83,1,-10,1s-5.83,0,-9,0s-6.83,0,-10,0s-5.83,0,-9,0s-6.67,0,-10,0s-6.83,0,-10,0s-7.5,0,-9,0Z" style="stroke: none; fill: blue;"></path>
    </g>
   </svg>
   <g>
    <g transform="translate(0,640)">
     <line x1="0" y1="0" x2="960" y2="0" style="stroke: black; stroke-width: 1;"></line>
     <path d="M0,-24v24m24,-12v12m24,-12v12m24,-12v12m24,-12v12m24,-24v24m24,-12v12m24,-12v12m24,-12v12m24,-12v12m24,-24v24m24,-12v12m24,-12v12m24,-12v12m24,-12v12m24,-24v24m24,-12v12m24,-12v12m24,-12v12m24,-12v12m24,-24v24m24,-12v12m24,-12v12m24,-12v12m24,-12v12m24,-24v24m24,-12v12m24,-12v12m24,-12v12m24,-12v12m24,-24v24m24,-12v12m24,-12v12m24,-12v12m24,-12v12m24,-24v24m24,-12v12m24,-12v12m24,-12v12m24,-12v12m24,-24v24" style="stroke: black; stroke-width: 1;"></path>
     <g font-family="Arial" font-size="28" space="preserve">
      <text fill="black" text-anchor="middle" dy=".8em" transform="translate(0,6)">
       -4
      </text>
      <text fill="black" text-anchor="middle" dy=".8em" transform="translate(120,6)">
       -3
      </text>
      <text fill="black" text-anchor="middle" dy=".8em" transform="translate(240,6)">
       -2
      </text>
      <text fill="black" text-anchor="middle" dy=".8em" transform="translate(360,6)">
       -1
      </text>
      <text fill="black" text-anchor="middle" dy=".8em" transform="translate(480,6)">
       0
      </text>
      <text fill="black" text-anchor="middle" dy=".8em" transform="translate(600,6)">
       1
      </text>
      <text fill="black" text-anchor="middle" dy=".8em" transform="translate(720,6)">
       2
      </text>
      <text fill="black" text-anchor="middle" dy=".8em" transform="translate(840,6)">
       3
      </text>
      <text fill="black" text-anchor="middle" dy=".8em" transform="translate(960,6)">
       4
      </text>
     </g>
    </g>
    <g>
     <line x1="0" y1="0" x2="0" y2="640" style="stroke: black; stroke-width: 1;"></line>
     <path d="M36,640h-36m18,-14h-18m18,-13h-18m18,-14h-18m18,-14h-18m36,-13h-36m18,-14h-18m18,-14h-18m18,-13h-18m18,-14h-18m36,-14h-36m18,-13h-18m18,-14h-18m18,-14h-18m18,-13h-18m36,-14h-36m18,-14h-18m18,-13h-18m18,-14h-18m18,-14h-18m36,-13h-36m18,-14h-18m18,-14h-18m18,-13h-18m18,-14h-18m36,-14h-36m18,-13h-18m18,-14h-18m18,-13h-18m18,-14h-18m36,-14h-36m18,-13h-18m18,-14h-18m18,-14h-18m18,-13h-18m36,-14h-36m18,-14h-18m18,-13h-18m18,-14h-18m18,-14h-18m36,-13h-36m18,-14h-18m18,-14h-18m18,-13h-18m18,-14h-18m36,-14h-36m18,-13h-18" style="stroke: black; stroke-width: 1;"></path>
     <g font-family="Arial" font-size="28" space="preserve">
      <text fill="black" text-anchor="end" dy=".4em" transform="translate(-4,640)">
       0
      </text>
      <text fill="black" text-anchor="end" dy=".4em" transform="translate(-4,572)">
       100
      </text>
      <text fill="black" text-anchor="end" dy=".4em" transform="translate(-4,503)">
       200
      </text>
      <text fill="black" text-anchor="end" dy=".4em" transform="translate(-4,435)">
       300
      </text>
      <text fill="black" text-anchor="end" dy=".4em" transform="translate(-4,367)">
       400
      </text>
      <text fill="black" text-anchor="end" dy=".4em" transform="translate(-4,298)">
       500
      </text>
      <text fill="black" text-anchor="end" dy=".4em" transform="translate(-4,230)">
       600
      </text>
      <text fill="black" text-anchor="end" dy=".4em" transform="translate(-4,162)">
       700
      </text>
      <text fill="black" text-anchor="end" dy=".4em" transform="translate(-4,94)">
       800
      </text>
      <text fill="black" text-anchor="end" dy=".4em" transform="translate(-4,25)">
       900
      </text>
     </g>
    </g>
   </g>
  </g>
  <g transform="translate(120,4)" font-family="Arial" font-size="40" space="preserve">
   <path d="M0,0h960v53h-960z" style="fill: none;"></path>
   <text fill="black" text-anchor="middle" dy=".8em" transform="translate(480,0)">
    This is the px distribution
   </text>
  </g>
  <g transform="translate(936,52)" font-family="Arial" font-size="26" space="preserve">
   <path d="M0,0h240v128h-240z" style="fill: white; stroke: black; stroke-width: 1;"></path>
   <text fill="black" text-anchor="middle" dy=".4em" transform="translate(120,16)">
    hpx
   </text>
   <text fill="black" text-anchor="start" dy=".4em" transform="translate(12,48)">
    Entries
   </text>
   <text fill="black" text-anchor="end" dy=".4em" transform="translate(228,48)">
    25000
   </text>
   <text fill="black" text-anchor="start" dy=".4em" transform="translate(12,80)">
    Mean
   </text>
   <text fill="black" text-anchor="end" dy=".4em" transform="translate(228,80)">
    0.003163
   </text>
   <text fill="black" text-anchor="start" dy=".4em" transform="translate(12,112)">
    Std Dev
   </text>
   <text fill="black" text-anchor="end" dy=".4em" transform="translate(228,112)">
    1.004
   </text>
   <path d="M0,32h240" style="stroke: black; stroke-width: 1;"></path>
  </g>
 </g>
</svg>

<svg xmlns="http://www.w3.org/2000/svg" viewBox="0 0 1200 800" preserveAspectRatio="none" width="1200" height="800">
 <title>
  ROOT canvas
 </title>
 <rect x="0" y="0" width="1200" height="800" style="fill: none;"></rect>
 <g>
  <g transform="translate(120,80)">
   <title></title>
   <rect x="0" y="0" width="960" height="640" style="fill: white; stroke: black; stroke-width: 1;"></rect>
   <svg x="0" y="0" overflow="hidden" width="960" height="640" viewBox="0 0 960 640">
    <g>
     <path d="M5,640C6.5,640,10.83,640,14,640S20.67,638,24,638S30.83,640,34,640S39.83,640,43,640S49.83,640,53,640S58.83,640,62,640S68.79,637.64,72,637S78.83,636,82,636S87.83,636,91,636S97.84,633.12,101,633S106.89,635.43,110,635S117.03,631.04,120,630S126.89,628.42,130,628S136.1,627.88,139,627S145.95,621.59,149,621S155.05,622.8,158,622S165.66,615.52,168,614S176.28,610.58,178,609S184.3,598.12,187,597S194.64,603.38,197,602S203.43,588.24,206,587S213.44,595.41,216,594S225.42,577.22,226,576S232.09,554.86,235,554S241.84,553.08,245,553S252.42,551.58,254,550S263.11,515.48,264,514S271.91,509.5,274,508S281.99,498.48,283,497S292.76,480.84,293,480S300.07,434.55,302,433S309.14,431.16,312,430S321.32,406.3,322,405S330.55,394.1,331,393S340.59,358.07,341,357S349.74,343.87,350,343S359.83,292.74,360,292S366.98,258.67,370,258S376.02,257.74,379,257S388.74,219.87,389,219S397.87,193.62,398,193S407.25,125.39,408,124S416.87,157.52,418,156S424.96,104.52,427,103S434.85,148.48,437,147S445.83,95.71,446,95S453.33,69.33,456,68S465.45,83.8,466,85S472.3,110.12,475,109S484.83,74.71,485,74S492.58,28.42,494,30S502.12,99.35,504,101S510.95,103.41,514,104S520.01,115.27,523,116S531.19,117.43,533,119S541.77,167.18,542,168S550.93,183.44,552,185S561.33,195.71,562,197S570.41,219.76,571,221S579.83,234.47,581,236S589.52,244.86,590,246S599.8,281.21,600,282S609.66,324.02,610,325S618.24,336.64,619,338S628.85,358.33,629,359S637.18,419.61,638,421S645.59,413.51,648,415S657.64,442.99,658,444S666.41,466.76,667,468S676.35,481.72,677,483S685.42,503.78,686,505S695.36,521.69,696,523S703.01,545.28,706,546S711.99,544.31,715,545S723.96,565.51,725,567S732.61,571.43,734,573S741.73,587.45,744,589S751.64,590.62,754,592S761.52,602.42,763,604S769.86,612.31,773,612S778.9,602.54,782,603S790.16,614.34,792,616S799.52,619.69,802,621S807.83,626,811,626S817.83,626,821,626S826.83,629,830,629S836.67,629,840,629S846.93,636.45,850,637S855.91,633.5,859,633S866.02,633.25,869,634S874.83,638,878,638S884.67,638,888,638S894.83,638,898,638S903.83,640,907,640S913.83,640,917,640S922.83,640,926,640S932.67,640,936,640S942.83,640,946,640S953.52,639.16,955,639L955,640C953.5,640,949.17,640,946,640S939.33,640,936,640S929.17,640,926,640S920.17,640,917,640S910.17,640,907,640S901.17,640,898,640S891.33,640,888,640S881.17,640,878,640S872.03,638.64,869,638S862.15,635.79,859,636S853.14,639.26,850,639S843.33,634,840,634S833.17,634,830,634S824.17,631,821,631S814.17,631,811,631S804.7,629.12,802,628S794.13,624.6,792,623S785.13,613.35,782,613S776.16,619.88,773,620S764.65,614.58,763,613S756.73,603.09,754,602S746.78,601.24,744,600S735.53,587.58,734,586S726.14,581.52,725,580S717.62,561.2,715,560S708.57,563.24,706,562S696.72,542.37,696,541S686.62,525.26,686,524S677.71,504.32,677,503S667.64,490.28,667,489S658.4,467.05,658,466S650.45,440.47,648,439S638.82,446.38,638,445S629.16,386.7,629,386S619.84,367.4,619,366S610.37,355.01,610,354S600.22,312.82,600,312S590.54,279.19,590,278S582.24,270.54,581,269S571.62,255.26,571,254S562.7,232.31,562,231S553.13,220.58,552,219S542.25,203.85,542,203S534.81,157.57,533,156S526,153.72,523,153S517.06,142.58,514,142S505.88,140.65,504,139S495.4,72.57,494,71S485.19,111.25,485,112S477.69,144.87,475,146S466.6,124.24,466,123S458.67,105.67,456,107S446.18,132.27,446,133S439.27,181.57,437,183S429.16,138.52,427,140S419.14,189.48,418,191S408.79,159.58,408,161S398.14,226.35,398,227S389.28,251.11,389,252S381.98,288.25,379,289S373.02,289.34,370,290S360.2,321.22,360,322S350.29,369.09,350,370S341.44,382.9,341,384S331.48,416.86,331,418S322.71,428.68,322,430S315.11,453.17,312,454S304.46,454.68,302,456S293.27,500.11,293,501S284.17,514.47,283,516S276.38,524.63,274,526S265.14,529.42,264,531S255.59,563.42,254,565S248.16,567.9,245,568S237.91,568.13,235,569S226.71,586.68,226,588S218.56,602.59,216,604S208.59,597.78,206,599S199.59,610.78,197,612S189.8,605.99,187,607S180.02,616.48,178,618S170.68,619.68,168,621S161.17,628,158,628S152.17,628,149,628S141.97,631.24,139,632S133.09,632.52,130,633S123.14,634.22,120,635S113.14,637.7,110,638S104.16,636.86,101,637S94.17,639,91,639S85.17,639,82,639S75.33,639,72,639S65.17,640,62,640S56.17,640,53,640S46.17,640,43,640S37.17,640,34,640S27.33,640,24,640S17.17,640,14,640S6.5,640,5,640Z" style="stroke: none; fill: blue;"></path>
    </g>
   </svg>
   <g>
    <g transform="translate(0,640)">
     <line x1="0" y1="0" x2="960" y2="0" style="stroke: black; stroke-width: 1;"></line>
     <path d="M0,-24v24m24,-12v12m24,-12v12m24,-12v12m24,-12v12m24,-24v24m24,-12v12m24,-12v12m24,-12v12m24,-12v12m24,-24v24m24,-12v12m24,-12v12m24,-12v12m24,-12v12m24,-24v24m24,-12v12m24,-12v12m24,-12v12m24,-12v12m24,-24v24m24,-12v12m24,-12v12m24,-12v12m24,-12v12m24,-24v24m24,-12v12m24,-12v12m24,-12v12m24,-12v12m24,-24v24m24,-12v12m24,-12v12m24,-12v12m24,-12v12m24,-24v24m24,-12v12m24,-12v12m24,-12v12m24,-12v12m24,-24v24" style="stroke: black; stroke-width: 1;"></path>
     <g font-family="Arial" font-size="28" space="preserve">
      <text fill="black" text-anchor="middle" dy=".8em" transform="translate(0,6)">
       -4
      </text>
      <text fill="black" text-anchor="middle" dy=".8em" transform="translate(120,6)">
       -3
      </text>
      <text fill="black" text-anchor="middle" dy=".8em" transform="translate(240,6)">
       -2
      </text>
      <text fill="black" text-anchor="middle" dy=".8em" transform="translate(360,6)">
       -1
      </text>
      <text fill="black" text-anchor="middle" dy=".8em" transform="translate(480,6)">
       0
      </text>
      <text fill="black" text-anchor="middle" dy=".8em" transform="translate(600,6)">
       1
      </text>
      <text fill="black" text-anchor="middle" dy=".8em" transform="translate(720,6)">
       2
      </text>
      <text fill="black" text-anchor="middle" dy=".8em" transform="translate(840,6)">
       3
      </text>
      <text fill="black" text-anchor="middle" dy=".8em" transform="translate(960,6)">
       4
      </text>
     </g>
    </g>
    <g>
     <line x1="0" y1="0" x2="0" y2="640" style="stroke: black; stroke-width: 1;"></line>
     <path d="M36,640h-36m18,-14h-18m18,-13h-18m18,-14h-18m18,-14h-18m36,-13h-36m18,-14h-18m18,-14h-18m18,-13h-18m18,-14h-18m36,-14h-36m18,-13h-18m18,-14h-18m18,-14h-18m18,-13h-18m36,-14h-36m18,-14h-18m18,-13h-18m18,-14h-18m18,-14h-18m36,-13h-36m18,-14h-18m18,-14h-18m18,-13h-18m18,-14h-18m36,-14h-36m18,-13h-18m18,-14h-18m18,-13h-18m18,-14h-18m36,-14h-36m18,-13h-18m18,-14h-18m18,-14h-18m18,-13h-18m36,-14h-36m18,-14h-18m18,-13h-18m18,-14h-18m18,-14h-18m36,-13h-36m18,-14h-18m18,-14h-18m18,-13h-18m18,-14h-18m36,-14h-36m18,-13h-18" style="stroke: black; stroke-width: 1;"></path>
     <g font-family="Arial" font-size="28" space="preserve">
      <text fill="black" text-anchor="end" dy=".4em" transform="translate(-4,640)">
       0
      </text>
      <text fill="black" text-anchor="end" dy=".4em" transform="translate(-4,572)">
       100
      </text>
      <text fill="black" text-anchor="end" dy=".4em" transform="translate(-4,503)">
       200
      </text>
      <text fill="black" text-anchor="end" dy=".4em" transform="translate(-4,435)">
       300
      </text>
      <text fill="black" text-anchor="end" dy=".4em" transform="translate(-4,367)">
       400
      </text>
      <text fill="black" text-anchor="end" dy=".4em" transform="translate(-4,298)">
       500
      </text>
      <text fill="black" text-anchor="end" dy=".4em" transform="translate(-4,230)">
       600
      </text>
      <text fill="black" text-anchor="end" dy=".4em" transform="translate(-4,162)">
       700
      </text>
      <text fill="black" text-anchor="end" dy=".4em" transform="translate(-4,94)">
       800
      </text>
      <text fill="black" text-anchor="end" dy=".4em" transform="translate(-4,25)">
       900
      </text>
     </g>
    </g>
   </g>
  </g>
  <g transform="translate(120,4)" font-family="Arial" font-size="40" space="preserve">
   <path d="M0,0h960v53h-960z" style="fill: none;"></path>
   <text fill="black" text-anchor="middle" dy=".8em" transform="translate(480,0)">
    This is the px distribution
   </text>
  </g>
  <g transform="translate(936,52)" font-family="Arial" font-size="26" space="preserve">
   <path d="M0,0h240v128h-240z" style="fill: white; stroke: black; stroke-width: 1;"></path>
   <text fill="black" text-anchor="middle" dy=".4em" transform="translate(120,16)">
    hpx
   </text>
   <text fill="black" text-anchor="start" dy=".4em" transform="translate(12,48)">
    Entries
   </text>
   <text fill="black" text-anchor="end" dy=".4em" transform="translate(228,48)">
    25000
   </text>
   <text fill="black" text-anchor="start" dy=".4em" transform="translate(12,80)">
    Mean
   </text>
   <text fill="black" text-anchor="end" dy=".4em" transform="translate(228,80)">
    0.003163
   </text>
   <text fill="black" text-anchor="start" dy=".4em" transform="translate(12,112)">
    Std Dev
   </text>
   <text fill="black" text-anchor="end" dy=".4em" transform="translate(228,112)">
    1.004
   </text>
   <path d="M0,32h240" style="stroke: black; stroke-width: 1;"></path>
  </g>
 </g>
</svg>
